img/map-cat-icon.svg

<svg width="62" height="88" viewBox="0 0 62 88" fill="none" xmlns="http://www.w3.org/2000/svg">
<g filter="url(#filter0_d)">
<path d="M39.405 43.0063L22.5963 42.9976L19.3146 66.7257C19.1483 67.9278 20.0823 68.9999 21.2957 68.9999H40.7043C41.9177 68.9999 42.8516 67.9278 42.6854 66.7257L39.405 43.0063Z" fill="#FF7236"/>
<path d="M22.0757 46.7613C24.7387 48.1849 27.7752 48.9979 31 48.9979C34.2248 48.9979 37.2614 48.1849 39.9244 46.7613L39.405 43.006L22.5963 42.9973L22.0757 46.7613Z" fill="#FFAA50"/>
<path d="M38 17.9953L44.5759 11.4188C45.4704 10.5242 47 11.1578 47 12.423V29.9964C46.9999 24.2963 42.4869 20.8297 38 17.9953Z" fill="#FF7236"/>
<path d="M47 29.9965C47 38.8339 39.8366 45.9979 31.0001 45.9979C22.1637 45.9979 15.0002 38.8338 15.0002 29.9965C15.0002 21.1592 22.1636 14.9951 31.0001 14.9951C39.8367 14.9951 47 21.1591 47 29.9965Z" fill="#FFAA50"/>
<path d="M24 29.9964C24 22.2947 28.4219 16.6269 34.3103 15.2965C33.2417 15.1004 32.1354 14.9951 31 14.9951C28.0556 14.9951 25.3064 15.6923 22.9366 16.9318L17.4241 11.4188C16.5296 10.5242 15 11.1578 15 12.423V29.9964C15 29.6357 15 29.6377 15 29.9964C15 38.8338 22.1634 45.9978 30.9999 45.9978C32.1354 45.9978 33.2417 45.8756 34.3102 45.6508C28.4219 44.1252 24 37.6981 24 29.9964Z" fill="#FF7236"/>
<path d="M27.4999 39.9973C29.4329 39.9973 30.9999 38.6541 30.9999 36.9971C30.9999 35.3401 29.4329 33.9968 27.4999 33.9968C25.567 33.9968 24 35.3401 24 36.9971C24 38.6541 25.567 39.9973 27.4999 39.9973Z" fill="#FFFDFB"/>
<path d="M34.5002 39.9973C36.4331 39.9973 38.0001 38.6541 38.0001 36.9971C38.0001 35.3401 36.4331 33.9968 34.5002 33.9968C32.5672 33.9968 31.0002 35.3401 31.0002 36.9971C31.0002 38.6541 32.5672 39.9973 34.5002 39.9973Z" fill="#FFFDFB"/>
<path d="M31.0003 36.9977C32.1048 36.9977 33.0003 36.1022 33.0003 34.9975C33.0003 33.8928 32.1048 32.9973 31.0003 32.9973C29.8957 32.9973 29.0002 33.8928 29.0002 34.9975C29.0002 36.1022 29.8957 36.9977 31.0003 36.9977Z" fill="#FF913C"/>
<path d="M37.9962 57.9158C37.9513 57.3659 37.4855 56.9572 36.9171 57.0022C36.3663 57.048 35.9582 57.5315 36.004 58.0818L36.1934 60.3549C36.4466 63.3935 34.049 65.9995 31.0001 65.9995C27.9513 65.9995 25.5536 63.3935 25.8068 60.3549L25.9961 58.0818C26.042 57.5315 25.6338 57.048 25.0831 57.0022C24.5167 56.9578 24.0498 57.3659 24.0039 57.9158L23.0806 68.9998H38.9198L37.9962 57.9158Z" fill="#FFAA50"/>
<path d="M25.0002 30.9965C24.4474 30.9965 24.0002 30.5487 24.0002 29.9964V28.9964C24.0002 28.4441 24.4475 27.9963 25.0002 27.9963C25.5528 27.9963 26.0001 28.4441 26.0001 28.9964V29.9964C26.0001 30.5487 25.5528 30.9965 25.0002 30.9965Z" fill="#1A212F"/>
<path d="M37 30.9965C36.4472 30.9965 36 30.5487 36 29.9964V28.9964C36 28.4441 36.4473 27.9963 37 27.9963C37.5527 27.9963 37.9999 28.4441 37.9999 28.9964V29.9964C38 30.5487 37.5527 30.9965 37 30.9965Z" fill="#1A212F"/>
</g>
<defs>
<filter id="filter0_d" x="0" y="0" width="62" height="87.9999" filterUnits="userSpaceOnUse" color-interpolation-filters="sRGB">
<feFlood flood-opacity="0" result="BackgroundImageFix"/>
<feColorMatrix in="SourceAlpha" type="matrix" values="0 0 0 0 0 0 0 0 0 0 0 0 0 0 0 0 0 0 127 0"/>
<feOffset dy="4"/>
<feGaussianBlur stdDeviation="7.5"/>
<feColorMatrix type="matrix" values="0 0 0 0 0.575 0 0 0 0 0.575 0 0 0 0 0.575 0 0 0 0.25 0"/>
<feBlend mode="normal" in2="BackgroundImageFix" result="effect1_dropShadow"/>
<feBlend mode="normal" in="SourceGraphic" in2="effect1_dropShadow" result="shape"/>
</filter>
</defs>
</svg>

<svg width="62" height="88" fill="none" xmlns="http://www.w3.org/2000/svg"><g filter="url(#filter0_d)"><path d="M39.405 43.006l-16.809-.008-3.281 23.728A2 2 0 0021.295 69h19.41a2 2 0 001.98-2.274l-3.28-23.72z" fill="#FF7236"/><path d="M22.076 46.761A18.873 18.873 0 0031 48.998c3.225 0 6.261-.813 8.924-2.237l-.519-3.755-16.809-.009-.52 3.764z" fill="#FFAA50"/><path d="M38 17.995l6.576-6.576c.894-.895 2.424-.261 2.424 1.004v17.573c0-5.7-4.513-9.166-9-12z" fill="#FF7236"/><path d="M47 29.997c0 8.837-7.163 16-16 16-8.836 0-16-7.163-16-16 0-8.838 7.164-15.002 16-15.002 8.837 0 16 6.164 16 15.002z" fill="#FFAA50"/><path d="M24 29.996c0-7.701 4.422-13.37 10.31-14.7a18.327 18.327 0 00-3.31-.3c-2.944 0-5.694.696-8.063 1.936l-5.513-5.513C16.53 10.524 15 11.158 15 12.423v17.573c0-.36 0-.358 0 0 0 8.838 7.163 16.002 16 16.002 1.135 0 2.242-.122 3.31-.347C28.422 44.125 24 37.698 24 29.996z" fill="#FF7236"/><path d="M27.5 39.997c1.933 0 3.5-1.343 3.5-3s-1.567-3-3.5-3-3.5 1.343-3.5 3 1.567 3 3.5 3zm7 0c1.933 0 3.5-1.343 3.5-3s-1.567-3-3.5-3-3.5 1.343-3.5 3 1.567 3 3.5 3z" fill="#FFFDFB"/><path d="M31 36.998a2 2 0 100-4 2 2 0 000 4z" fill="#FF913C"/><path d="M37.996 57.916a.99.99 0 00-1.079-.914 1 1 0 00-.913 1.08l.19 2.273a5.212 5.212 0 11-10.387 0l.19-2.273a1 1 0 00-.914-1.08.992.992 0 00-1.08.914L23.082 69H38.92l-.924-11.084z" fill="#FFAA50"/><path d="M25 30.997a1 1 0 01-1-1v-1a1 1 0 112 0v1a1 1 0 01-1 1zm12 0a1 1 0 01-1-1v-1a1 1 0 112 0v1a1 1 0 01-1 1z" fill="#1A212F"/></g><defs><filter id="filter0_d" x="0" y="0" width="62" height="88" filterUnits="userSpaceOnUse" color-interpolation-filters="sRGB"><feFlood flood-opacity="0" result="BackgroundImageFix"/><feColorMatrix in="SourceAlpha" values="0 0 0 0 0 0 0 0 0 0 0 0 0 0 0 0 0 0 127 0"/><feOffset dy="4"/><feGaussianBlur stdDeviation="7.5"/><feColorMatrix values="0 0 0 0 0.575 0 0 0 0 0.575 0 0 0 0 0.575 0 0 0 0.25 0"/><feBlend in2="BackgroundImageFix" result="effect1_dropShadow"/><feBlend in="SourceGraphic" in2="effect1_dropShadow" result="shape"/></filter></defs></svg>
